X:1
T:Psalm 100
T:John Dowland (1563-1626)
T:SATB
T:Psalm 100
T:Finale-Eingabe: John Christensen Copyleft 2018
T:Finale-Eingabe: John Christensen Copyleft 2018
T:Finale-Eingabe: John Christensen Copyleft 2018
C:John Dowland (1563-1626)
Z:Finale-Eingabe: John Christensen
Z:Copyleft 2018
%%score [ 1 2 3 4 ]
L:1/8
Q:1/4=110
M:2/2
K:A
V:1 treble nm="Sopran" snm="S"
V:2 treble nm="Alt" snm="A"
V:3 treble-8 nm="Tenor" snm="T"
V:4 bass nm="Bass" snm="B"
V:1
 c4 d2 B2 | d2 c3 B A2- | A2 G2 A4 | e4 E2 A2 | G2 F3 G A2- | A2 A2 G4 | F4 G2 A2 | G2 c3 B A2 | %8
w: 1. All peo- ple|that on _ earth|_ do dwell|sing to the|Lord with _ cheer-|* ful voice:|Him serve with|fear, his _ praise|
w: 2. The Lord ye|know is _ God|_ in- deed,|with- out our|aid he _ did|_ us make:|We are his|flock, he _ doth|
w: 3. O en- ter|then his _ gates|_ with praise,|ap- proach with|joy his _ courts|_ un- to:|Praise, laud and|bless his _ name|
w: 4. For why? The|Lord our _ God|_ is good,|his mer- cy|is for _ ev-|* er sure:|His truth at|all times _ firm-|
 e3 d c4 | G4 A3 G |[M:3/2] F2 B3 A A4 G2 |[M:2/2] A8 z4 |] %12
w: forth _ tell,|come ye be-|fore him _ and re-|joice.|
w: us _ feed|and for his|sheep he _ doth us|take.|
w: al- * ways,|for it is|seem- ly _ so to|do.|
w: ly _ stood,|and shall from|age to _ age en-|dure.|
V:2
 E4 F2 E2 | FG A4 E2 | E2 E2 E4 | A4 A2 E2 | E2 C D2 E F2 | E4 E4 | C4 E2 E2 | E2 E2 D3 C | %8
w: 1. All peo- ple|that _ _ on|earth do dwell|sing to the|Lord with _ cheer- *|ful voice:|Him serve with|fear, his praise forth|
w: 2. The Lord ye|know _ _ is|God in- deed,|with- out our|aid he _ did _|us make:|We are his|flock, he doth us|
w: 3. O en- ter|then _ _ his|gates with praise,|ap- proach with|joy his _ courts _|un- to:|Praise, laud and|bless his name al-|
w: 4. For why? The|Lord _ _ our|God is good,|his mer- cy|is for _ ev- *|er sure:|His truth at|all times firm- ly|
 B,4 F4 | B,3 E2 F2 C |[M:3/2] D2 F2 E6 E2 |[M:2/2] E8 z4 |] %12
w: _ tell,|come ye be- fore|_ him and re-|joice.|
w: _ feed|and for his sheep|_ he doth us|take.|
w: * ways,|for it is seem-|* ly so to|do.|
w: _ stood,|and shall from age|_ to age en-|dure.|
V:3
 A4 A2 G2 | F2 E2 A4 | B4 c4 | c4 c2 c2 | B2 A2 d4 | c4 B4 | A4 B2 c2 | B2 A2 F4 | G4 A4 | %9
w: 1. All peo- ple|that on earth|do dwell|sing to the|Lord with cheer-|ful voice:|Him serve with|fear, his praise|forth tell,|
w: 2. The Lord ye|know is God|in- deed,|with- out our|aid he did|us make:|We are his|flock, he doth|us feed|
w: 3. O en- ter|then his gates|with praise,|ap- proach with|joy his courts|un- to:|Praise, laud and|bless his name|al- ways,|
w: 4. For why? The|Lord our God|is good,|his mer- cy|is for ev-|er sure:|His truth at|all times firm-|ly stood|
 e4 c2 A2 |[M:3/2] B2 d2 c4 B4 |[M:2/2] A8 z4 |] %12
w: come ye be-|fore him and re-|joice.|
w: and for his|sheep he doth us|take.|
w: for it is|seem- ly so to|do.|
w: and shall from|age to age en-|dure.|
V:4
 A,,4 D,2 E,2 | B,,2 C,2 A,,4 | E,4 A,,4 | A,,4 A,2 A,2 | E,2 F,2 D,4 | A,4 E,4 | F,4 E,2 C,2 | %7
w: 1. All peo- ple|that on earth|do dwell|sing to the|Lord with cheer-|ful voice:|Him serve with|
w: 2. The Lord ye|know is God|in- deed,|with- out our|aid he did|us make:|We are his|
w: 3. O en- ter|then his gates|with praise,|ap- proach with|joy his courts|un- to:|Praise, laud and|
w: 4. For why? The|Lord our God|is good,|his mer- cy|is for ev-|er sure:|His truth at|
 E,2 A,,2 D,4 | E,4 F,4 | E,4 A,>G, F,>E, |[M:3/2] D,>C, B,,2 C,3 D, E,4 |[M:2/2] A,,8 z4 |] %12
w: fear, his praise|forth tell,|come ye _ be- *|fore _ him and _ re-|joice.|
w: flock, he doth|us feed|and for _ his _|sheep _ he doth _ us|take.|
w: bless his name|al- ways,|for it _ is _|seem- * ly so _ to|do.|
w: all times firm-|ly stood|and shall _ from _|age _ to age _ en-|dure.|

